X:1
T:Swan Lake Suite Excerpt
T:Excerpt from Swan Lake Suite
T:Peter Tchaikovsky
T:Arr. for Piano 4 hands by Eduard Langer
C:Peter Tchkovsky
Z:Arr. for Piano 4 hands by Eduard Langer
%%score { 1 | ( 2 3 ) } { ( 4 6 ) | 5 }
L:1/8
Q:1/4=92
M:4/4
K:D
V:1 treble nm="Piano\nPrimo" snm="Pno. P."
V:2 treble 
V:3 treble 
V:4 treble nm="Piano\nSecondo" snm="Pno. S."
V:6 treble 
V:5 bass 
V:1
"^Moderato" z8 |!p! !>!f4 Bcde | f3 d f3 d | f3 B dBGd | B4- Bedc | !>!f4 Bcde | f3 d f3 d | %7
 f3 B dBGd | B4 z2 B2 |!<(! c2 d2 e2 f!<)!!mp!g |!>(! a3 g!>)!!p! f2 ga |!<(! b3 a g2 a!<)!!mp!b | %12
!>(! c'3 b f dc!>)!!p!B |!<(! c2 d2 e2 f!<)!!mp!g |!>(! a3 g!>)!!p! f2 ga |"_cresc." b3 a g2 ab | %16
 =c'3 g e2 gc' |!f! ^c'3 ^g c'3 f | [fb]2 z2 z4 | z8 | z4!p! !///-!g d !///-!^a e | %21
 !///-!b2 f2 !///-!b2 g2 | !///-!b2 f2 !///-!b2 g2 | !///-!b4 f4 | %24
 !///-!b2 f2 !///-!g d !///-!^a e | %25
!mp! (3[dfb][dfb][dfb] (3[dfb][dfb][dfb] (3[dfb][dfb][dfb] (3[dfb][dfb][dfb] | %26
 (6:4:6[eac'][eac'][eac'][eac'][eac'][eac'] (6:4:6[ac'][ac'][ac'][ac'][ac'][ac'] | %27
 (6:4:6[ac'][ac'][ac'][ac'][ac'][ac'] (6:4:6[ac'][ac'][ac'][ac'][ac'][ac'] | %28
!8va(! (6:4:6[be'][be'][be'][be'][be'][be'] (6:4:6[be'][be'][be'][be'][be'][be'] | %29
 (6:4:6[c'^e'][c'e'][c'e'][c'e'][c'e'][c'e'] (3[c'f'][c'f'][c'f']!8va)! (3[bd'][bd'][fb] | %30
 (6:4:6[ac'][ac'][ac'][ac'][ac'][ac'] (6:4:6[ac'][ac'][ac'][ac'][ac'][ac'] | %31
 (6:4:6[ac'][ac'][ac'][ac'][ac'][ac'] (6:4:6[ac'][ac'][ac'][ac'][ac'][ac'] | %32
!<(! (3[be'][be'][be'] (3[gb][gb][gb] (3[gb][gb][gb] (3[gb][gb][gb]!<)! | %33
!mf! (3[g=c'][gc'][gc'] (3[gc'][gc'][gc'] (3[gb][gb][gb] (3[gb][gb][gb] | %34
 (3[f^a][fa][fa] (3[fa][fa][fa] (3[gb][gb][gb] (3[gb][gb][gb] | %35
 (3[g=c'][gc'][gc'] (3[gc'][gc'][gc'] (3[gb][gb][gb] (3[gb][gb][gb] | %36
 (3[f^a][fa][fa] (3[fa][fa][fa] (3[gb][gb][gb] (3[gb][gb][gb] | %37
!ff!!8va(! (3[=c'=c'']2 [gg']2 [c'c'']2 (3[c'c'']2 [gg']2 [c'c'']2 | [be'g']4 (3:2:2[^ae'f']4 f'2 | %39
!f! (3[=c'=c'']2 [gg']2 [c'c'']2 (3[c'c'']2 [gg']2 [c'c'']2 | [be'g']4 (3:2:2[^ae'f']4 f'2 | %41
!ff! (3[=c'=c'']2 [gg']2 [c'c'']2 (3[=c'c'']2 [gg']2 [c'c'']2 | %42
!f! [^c'^c'']4- (3:2:2[c'c'']4 [c'c'']2 | %43
!ff! (3[d'd'']2 [_b_b']2 [d'd'']2 (3[d'd'']2 [bb']2 [d'd'']2 | %44
 [d'e'^a'd'']4- (3:2:2[d'e'a'd'']4 [c'c'']2 | %45
 (3[d'd'']2 [d'd'']2 [c'c'']2 (3[d'd'']2 [d'd'']2 [c'c'']2 | %46
 (3[d'd'']2 [d'd'']2 [c'c'']2 (3[d'd'']2 [d'd'']2 [c'c'']2!8va)! || %47
!ff![Q:1/4=144]"^Più mosso" z f'ze' z c'z^a | z fze z cz^A | z8 | z8 |!8va(! !>![fbd'f']8 | %52
 !//-!b b' !//-!c' c'' !//-!d' d'' !//-!e' e'' | !//-!f'3 f''3 !//-!d' d'' | %54
 !//-!f'3 f''3 !//-!d' d'' | !//-!f'2 f''2 !//-!d'2 d''2 | !//-!b2 b'2!8va)! !//-!f2 f'2 | %57
!8va(! !//-!d'2 d''2 !//-!b2 b'2!8va)! | !//-!f2 f'2 !//-!d2 d'2 |!f!!8va(! !>![f'f'']8 | %60
 [bb']2 [c'c'']2 [d'd'']2 [e'e'']2 | [f'f'']6 [d'd'']2 | [f'f'']6 [d'd'']2!8va)! | z8 | z8 | z8 | %66
 z8 | z8 | z8 | z8 |] %70
V:2
 z8 | z8 | z8 | z8 | z8 | z8 | z8 | z8 | z8 | %9
!pp!!ped! (3z!<(! CE (3AEC!ped-up!!ped! (3z CE (3A!<)!!p!EC!ped-up! | %10
!>(!!ped! (3z A,C (3FAc!>)!!ped-up!!pp!!ped! A z z2!ped-up! | %11
!ped! [EGB] z (3GAe!ped-up!!ped! [GB] z z2!ped-up! | %12
!ped! [^E^Gc] z (3EGc!ped-up!!ped! [F^A] z [DF] z!ped-up! | %13
!pp!!ped! (3z!<(! C=E (3AEC!ped-up!!ped! (3z CE (3A!<)!!p!EC!ped-up! | %14
!>(!!ped! (3z A,C (3FAc!>)!!ped-up!!pp!!ped! [FA] z z2!ped-up! | %15
!ped!"_cresc." [EGB] z (3GAe!ped-up!!ped! [=FGB] z (3GB=f!ped-up! |!ped! [G=ce] z z2 z4!ped-up! | %17
!pp!!ped! !///-!^G2 c2!ped-up!!ped! !///-!^A2 c2!ped-up! | %18
!ped! !///-!B2 d2!p! !///-![GB]2 e2!ped-up! |!ped! !///-![df]2 B2 !///-![df]2 B2 | %20
 !///-![df]2 B2!ped-up! !///-!B G !///-!^A E |!ped! !///-!d2 B2!ped-up!!ped! !///-!e2 B2!ped-up! | %22
!ped! !///-!d2 B2!ped-up!!ped! !///-!e2 B2!ped-up! |!ped! !///-!d4 B4!ped-up! | %24
!ped! !///-!d2 B2!ped-up!!ped! !///-!B G!ped-up!!ped! !///-!^A E!ped-up! | %25
!ped! (3[FB][FB][FB] (3[FB][FB][FB] (3[FB][FB][FB] (3[FB][FB][FB]!ped-up! | %26
!ped! (6:4:6[Ac][Ac][Ac][Ac][Ac][Ac]!ped-up!!ped! (6:4:6[ce][ce][ce][ce][ce][ce]!ped-up! | %27
!ped! (6:4:6[cf][cf][cf][cf][cf][cf] (6:4:6[cf][cf][cf][cf][cf][cf]!ped-up! | %28
!ped! (6:4:6[eg][eg][eg][eg][eg][eg] (6:4:6[eg][eg][eg][eg][eg][eg]!ped-up! | %29
!ped! (6:4:6[^e^g][eg][eg][eg][eg][eg]!ped-up!!ped! (3[f^a][fa][fa]!ped-up!!ped! (3[df][df][Bd]!ped-up! | %30
!ped! (6:4:6[ce][ce][ce][ce][ce][ce]!ped-up!!ped! (6:4:6[ce][ce][ce][ce][ce][ce]!ped-up! | %31
!ped! (6:4:6[cf][cf][cf][cf][cf][cf] (6:4:6[cf][cf][cf][cf][cf][cf]!ped-up! | %32
!ped! (3[eg][eg][eg] (3[Be][Be][Be]!ped-up!!ped! (3[B=f][Bf][Bf] (3fff!ped-up! | %33
!ped! (3eee (3eee!ped-up!!ped! (3eee (3eee!ped-up! | %34
!ped! (3^ccc (3ccc!ped-up!!ped! (3eee (3eee!ped-up! | %35
!ped! (3eee (3eee!ped-up!!ped! (3eee (3eee!ped-up! | %36
!ped! (3ccc (3ccc!ped-up!!ped! (3eee (3eee!ped-up! |!ped! [G=ce]4 [Gce]4!ped-up! | %38
!ped! [Beg]4!ped-up!!ped! (3:2:2[^Aef]4 f2!ped-up! |!ped! [G=ce]4 [Gce]4!ped-up! | %40
!ped! [Beg]4!ped-up!!ped! (3:2:2[^Aef]4 f2!ped-up! |!ped! e4 e2 x2!ped-up! | %42
!ped! [EG^ce]8!ped-up! |!ped! (3[=F_Ad=f]2 _B2 d2 (3[FAd]2 B2 d2!ped-up! | %44
!ped! [^Ade]4- (3:2:2[Ade]4 c2!ped-up! |!ped! (3[^Ad]2 d2 c2 (3d2 d2 c2!ped-up! | %46
!ped! (3[^Ad]2 d2 c2 (3d2 d2 c2!ped-up! || fze z cz^A z | FzE z Cz^A, z | F2 z2 z4 | z8 | %51
 !>![FBd]8 | !>!B2 !>!c2 !>!d2 !>!e2 |!ped! !>!f6!ped-up!!ped! d2!ped-up! | %54
!ped! !>!f6!ped-up!!ped! d2!ped-up! |!ped! f4!ped-up!!ped! d4!ped-up! | %56
!ped! B4!ped-up!!ped! F4!ped-up! |!ped! d4!ped-up!!ped! B4!ped-up! | %58
!ped! F4!ped-up!!ped! D4!ped-up! | !>!f8 | B2 c2 d2 e2 | f6 d2 | f6 d2 | z8 | z8 | z8 | z8 | z8 | %68
 z8 | z8 |] %70
V:3
 x8 | x8 | x8 | x8 | x8 | x8 | x8 | x8 | x8 | x8 | x8 | x8 | x8 | x8 | x8 | x8 | x8 | x8 | x8 | %19
 x8 | x8 | x8 | x8 | x8 | x8 | x8 | x8 | x8 | x8 | x8 | x8 | x8 | x8 | x8 | x8 | x8 | x8 | x8 | %38
 x8 | x8 | x8 | (3[G=c]2 G2 c2 (3[Gc]2 G2 c2 | x8 | x8 | x8 | x8 | x8 || x8 | x8 | x8 | x8 | x8 | %52
 x8 | x8 | x8 | x8 | x8 | x8 | x8 | x8 | x8 | x8 | x8 | x8 | x8 | x8 | x8 | x8 | x8 | x8 |] %70
V:4
!sfz! [B,D]/4F/4!>(![B,D]/4F/4[B,D]/4F/4[B,D]/4F/4 [B,D]/4F/4[B,D]/4F/4[B,D]/4F/4[B,D]/4F/4 [B,D]/4F/4[B,D]/4F/4[B,D]/4F/4[B,D]/4F/4 [B,D]/4F/4[B,D]/4F/4[B,D]/4F/4[B,D]/4F/4!>)! | %1
!pp! !///-![B,D]2 F2 !///-![B,E]2 G2 | !///-![B,D]2 F2 !///-![B,D]2 F2 | %3
 !///-![B,D]2 F2 !///-!B, ^E B,/4=E/4B,/4E/4^A,/4E/4A,/4E/4 | %4
[K:bass] !///-![F,B,] D[K:treble] !///-![B,E] G !///-![B,E] A !///-![B,E] G | %5
 !///-![B,D] F !///-![B,D] F !///-![B,D] ^E !///-!B, =E | %6
 !///-!B, =D[K:bass] !///-!^G, B, !///-![F,^A,] C !///-![F,B,] D | %7
 !///-![F,^A,] E !///-![F,B,] D !///-![^E,B,] D [B,E]/4=E,/4[B,E]/4E,/4[^A,E]/4E,/4[A,E]/4E,/4 | %8
 !///-![B,D] F,[K:treble] !///-![DF] B, [DFB] z z2 |[K:bass]!p! A, z z2 G, z z2 | %10
 F, z z2!p! [F,A,C] z z2 | (3E,B,E z2 E z z2 | (3C,^G,C z2 [F,C] z B, z | A, z z2 G, z z2 | %14
 F, z z2 [F,A,C] z z2 | (3E,B,E E, z (3D,G,B, D z | [G,=CE] z[K:treble] E/G/=c/e/ [EGc] z z2 | %17
 !///-![B,^C]2 ^E2 !///-![^A,C]2 =E2 | [B,DF]4[K:bass]!mf! B,!<(!CDE!<)! | %19
[K:treble]!f! [B,DF]3 D F3 D | [B,DF]3 B,[K:bass] DB,G,D | B,4 B,EDC | [B,DF]4 B,CDE | %23
 [F,B,DF]3 D F3 D | [F,B,DF]3 B, DB,G,D |!f! B, x x2 z2 B,2 | %26
!mf! !>!C2 !>!D2[K:treble] !>!E2 !>!F!>!G | !>!A3 !>!G !>!F2 !>!G!>!A | !>!B3 !>!A !>!G2 !>!A!>!B | %29
 !>!c3 !>!B !>!^A!>!D!>!C!>!B, | !>!C2 !>!D2 !>!E2 !>!F!>!G | !>!A3 !>!G !>!F2 !>!G!>!A | %32
!<(! !>!B3 !>!A !>!G2 !>!A!>!B!<)! |!ff! (3[=CEG=c]2 [G,G]2 [Cc]2 (3:2:2[B,EGB]4 [B,B]2 | %34
 (3[^A,^CF^A]2 [F,F]2 [A,A]2 (3:2:2[B,EGB]4 [B,B]2 | %35
 (3[=CEG=c]2 [G,G]2 [Cc]2 (3:2:2[B,EGB]4 [B,B]2 | %36
 (3[^A,^CF^A]2 [F,F]2 [A,A]2 (3:2:2[B,EGB]4 [B,B]2 |[K:bass]!f! [E,G,=C]4 [=C,C]4 | %38
 (3z2 F,2 ^C2 (3C2 F,2 C2 |!mf! [E,G,=C]4 [=C,C]4 |!ff! (3z2 F,2 ^C2 (3C2 F,2 C2 | %41
!f! [E,G,=C]4 C4 |!ff! (3B,2 E,2 B,2 (3B,2 E,2 B,2 | _B,8 |!ff! (3F,2 C2 F2 (3F2 C2 F2 | %45
[K:treble] !>![CEF]8 | !>![CEF]8 ||!ff! F z E z[K:bass] C z ^A, z | F, z z2 z4 | %49
 !>!F,2 !>!E2 !>!C2 !>!^A,2 | !>!F,2 !>!E,2 !>!D,2 !>!C,2 | !>![D,F,B,D]8 | %52
 !>!B,2 !>!C2 !>!D2 !>!E2 | !>!F4 [F,B,DF]4 | z4 [F,B,DF]4 | z2 [F,B,DF]2 z2 [F,B,DF]2 | %56
 z2 [F,B,D]2 z2 [F,B,D]2 | z2 [F,B,D]2 z2 [F,B,D]2 | z2 [F,B,D]2 z2 [D,F,B,]2 | %59
[K:treble]!mp! !///-![B,D]4 F4 | !///-![B,D]4 F4 | !///-![B,D]4 F4 | !///-![B,D]4 F4 | %63
 !///-![B,D]4 F4 | !///-![B,D]4 F4 | !///-![B,D]4 F4 | !///-![B,D]4 F4 | %67
!>(! [B,D]/4F/4[B,D]/4F/4[B,D]/4F/4[B,D]/4F/4 [B,D]/4F/4[B,D]/4F/4[B,D]/4F/4[B,D]/4F/4 [B,D]/4F/4[B,D]/4F/4[B,D]/4F/4[B,D]/4F/4 [B,D]/4F/4[B,D]/4F/4[B,D]/4F/4[B,D]/4F/4 | %68
 [B,D]/4F/4[B,D]/4F/4[B,D]/4F/4[B,D]/4F/4 [B,D]/4F/4[B,D]/4F/4[B,D]/4F/4[B,D]/4F/4 [B,D]/4F/4[B,D]/4F/4[B,D]/4F/4[B,D]/4F/4 [B,D]/4F/4[B,D]/4F/4[B,D]/4F/4[B,D]/4F/4!>)! | %69
!pp! [B,DF] z z2 z4 |] %70
V:5
!ped! z8!ped-up! |!p!!ped! [B,,,B,,] z z2!ped-up!!ped! z4!ped-up! |!ped! z8!ped-up! | %3
!ped! z4!ped-up!!p!!ped! ^G,2!ped-up!!ped! =G,F,!ped-up! | %4
!ped! [B,,,B,,] z!ped-up!!ped! z2!ped-up!!ped! z4!ped-up!!ped!!ped-up! | %5
!ped! z2 A,2!ped-up!!ped! ^G,2!ped-up!!ped! =G,2!ped-up! | %6
!ped! F,4!ped-up!!ped! E,2!ped-up!!ped! D,2!ped-up! | %7
!ped! C,2!ped-up!!ped! B,,A,,!ped-up!!ped! ^G,,2!ped-up! =G,,F,, | %8
!ped! [B,,,B,,] z!ped-up!!ped! z2!ped-up!!ped! [B,,B,] z z2!ped-up! | %9
!ped! A,, z z2!ped-up!!ped! G,, z z2!ped-up! |!ped! F,, z z2!ped-up!!ped! z4!ped-up! | %11
!p!!ped! E,, z z2 z4!ped-up! |!ped! C,, z z2!ped-up! F,, z B,, z | %13
!ped! A,, z z2!ped-up!!ped! G,, z z2!ped-up! |!ped! F,, z z2!ped-up!!ped! z4!ped-up! | %15
!ped! E,, z z2!ped-up!!ped! D,, z D, z!ped-up! | %16
!ped! =C,/E,/G,/=C/ z2!ped-up!!ped! .[_B,,_B,] z z2!ped-up! | %17
!p!!ped! [^G,,^G,] z z2!ped-up!!ped! [F,,F,] z z2!ped-up! | %18
!ped! !///-!B,,,2 B,,2 !///-!B,,,2 B,,2!ped-up! |!ped! !///-!B,,,4 B,,4!ped-up! | %20
!ped! !///-!B,,,4 B,,4!ped-up! |!ped! !///-!B,,,4 B,,4!ped-up! |!ped! !///-!B,,,4 B,,4!ped-up! | %23
!ped! !///-!B,,,4 B,,4!ped-up! |!ped! !///-!B,,,4 B,,4!ped-up! | %25
!ped! B,,,/4D,,/4F,,/4B,,/4 z z z/4 B,,/4F,,/4D,,/4 B,,, z z2!ped-up! | %26
!f!!ped! A,,4!ped-up!!ped! G,,4!ped-up! |!ped! [F,,F,]8!ped-up! | %28
!ped! [E,,E,]4!ped-up!!ped! [D,,D,]4!ped-up! | %29
!ped! [C,,C,]4!ped-up!!mf!!ped! [F,,F,]2 [B,,F,]2!ped-up! | [A,,E,A,]4 [G,,G,]4 | %31
!ped! [F,,F,]8!ped-up! |!ped! [E,,E,]4!ped-up!!ped! [D,,D,]4!ped-up! | %33
!ped! [=C,,=C,]4!ped-up!!ped! [E,,E,]4!ped-up! |!ped! [F,,F,]4!ped-up!!ped! [E,,E,]4!ped-up! | %35
!ped! [=C,,=C,]4!ped-up!!ped! [E,,E,]4!ped-up! |!ped! [F,,F,]4!ped-up!!ped! [E,,E,]4!ped-up! | %37
!ped! [=C,,=C,]4 z4!ped-up! |!ped! (3!>![F,,,F,,]2 F,,2 ^C,2 (3C,2 F,,2 C,2!ped-up! | %39
!ped! [=C,,=C,]4 z4!ped-up! |!ped! (3!>![F,,,F,,]2 F,,2 ^C,2 (3C,2 F,,2 C,2!ped-up! | %41
!ped! [=C,,=C,]4 C,4!ped-up! |!ped! (3B,,2 E,,2 B,,2 (3B,,2 E,,2 B,,2!ped-up! | _B,,8 | %44
!ped! (3[F,,,F,,]2 C,2 F,2 (3F,2 C,2 F,2!ped-up! | !>![F,^A,]4 [F,,,F,,]4 | %46
 !>![F,^A,]4 [F,,,F,,]4 || z8 | z8 | z2 !>!E,2 !>!C,2 !>!^A,,2 | !>!F,,2 !>!E,,2 !>!D,,2 !>!C,,2 | %51
!ped! !///-!B,,,4 B,,4!ped-up! | B,,, z z2 z4 | z4 [B,,,B,,]4 | z4 [B,,,B,,]4 | %55
 z2 [B,,,B,,]2 z2 [B,,,B,,]2 | z2 [B,,,B,,]2 z2 [B,,,B,,]2 | z2 [B,,,B,,]2 z2 [B,,,B,,]2 | %58
 z2 [B,,,B,,]2 z2 [B,,,B,,]2 |!ped! z8 | z8 | z8 | z8 | [F,,F,]8!ped-up! | %64
!f!!ped! [B,,,B,,]2 [C,,C,]2 [D,,D,]2 [E,,E,]2!ped-up! |!ped! [F,,F,]6 [D,,D,]2!ped-up! | %66
!ped! [F,,F,]6 [D,,D,]2!ped-up! |!ped! [B,,,B,,]2 z2 z4 | %68
!mf! [B,,,B,,]2 z2!mp! [B,,,B,,]2 z2!ped-up! |!p!!ped! [B,,,B,,] z z2!ped-up! z4 |] %70
V:6
 x8 | x8 | x8 | x8 |[K:bass] x2[K:treble] x6 | x8 | x2[K:bass] x6 | x8 | x2[K:treble] x6 | %9
[K:bass] x8 | x8 | x8 | x8 | x8 | x8 | x8 | x2[K:treble] x6 | x8 | x4[K:bass] G,4 |[K:treble] x8 | %20
 x4[K:bass] [=F,G,]2 E,2 | [D,F,]4 [E,G,]4 | F,4 [E,G,]4 | x8 | x4 [=F,G,]2 E,2 | %25
 [D,F,] D,/4F,/4B,/4D/4 B,/4D/4B,/4F,/4 D,/ z/ x2 x2 | [E,A,]4[K:treble] [A,C]4 | [A,C]6 z2 | %28
 [B,EG]8 | [C^E^G]4 [CF] x x2 | x4 [A,C]4 | [A,C]6 z2 | [B,EG]4 [B,=F]4 | x8 | x8 | x8 | x8 | %37
[K:bass] x8 | x8 | x8 | x8 | x8 | x8 | x8 | x8 |[K:treble] x8 | x8 || x4[K:bass] x4 | x8 | x8 | %50
 x8 | x8 | x8 | x8 | x8 | x8 | x8 | x8 | x8 |[K:treble] x8 | x8 | x8 | x8 | x8 | x8 | x8 | x8 | %67
 x8 | x8 | x8 |] %70

